build/img/icons/photo.svg

<svg width="20" height="18" fill="none" xmlns="http://www.w3.org/2000/svg">
    <path d="m12.12 2 1.83 2H18v12H2V4h4.05l1.83-2h4.24zM13 0H7L5.17 2H2C.9 2 0 2.9 0 4v12c0 1.1.9 2 2 2h16c1.1 0 2-.9 2-2V4c0-1.1-.9-2-2-2h-3.17L13 0zm-3 7c1.65 0 3 1.35 3 3s-1.35 3-3 3-3-1.35-3-3 1.35-3 3-3zm0-2c-2.76 0-5 2.24-5 5s2.24 5 5 5 5-2.24 5-5-2.24-5-5-5z" fill="#C4C4C4"/>
</svg>

<svg width="20" height="18" viewBox="0 0 20 18" fill="none" xmlns="http://www.w3.org/2000/svg">
<path d="M12.12 2L13.95 4H18V16H2V4H6.05L7.88 2H12.12ZM13 0H7L5.17 2H2C0.9 2 0 2.9 0 4V16C0 17.1 0.9 18 2 18H18C19.1 18 20 17.1 20 16V4C20 2.9 19.1 2 18 2H14.83L13 0ZM10 7C11.65 7 13 8.35 13 10C13 11.65 11.65 13 10 13C8.35 13 7 11.65 7 10C7 8.35 8.35 7 10 7ZM10 5C7.24 5 5 7.24 5 10C5 12.76 7.24 15 10 15C12.76 15 15 12.76 15 10C15 7.24 12.76 5 10 5Z" fill="#C4C4C4"/>
</svg>
